X:16171
T:Swans Hornpipe. BF11.06
M:4/4
L:1/8
Q:90
C:Browne A hand
S:MS11,c1800.,Browne Coll.,Lakes
R:Hornpipe
O:England
A:Lakes
Z:vmp.Chris Partington
K:D
Fd dc/B/ ce ed/c/|df f/g/a/f/ e/d/c/B/ A/G/F/E/|!
Fd dc/B/ ce ea/g/|fe/d/ A/d/c/e/ dDD::!
"qu's"B/c/|d/A/F/c/ d/f/e/d/ e/d/c/B/ Af/a/|g/f/e/d/ e/d/e/f/ e/d/c/B/ A
A/c/|!
B/G/G/G/ d/G/G/G/ A/F/F/F/ Ae/g/|de/d/ A/d/c/e/ dDD:|]
